X:5
T:Bag of Spuds
Z: id:dc-reel-6
M:C
L:1/8
K:A Dorian
A2eA cAeA|ABcd e2dB|G2dG BGdG|GBB2 GBdB|!
A2eA cAeA|ABcd e2dB|ABcd egg2|dBGA BAA2:|!
a2ea a2ea|agbg agef|gedc BGBd|gfga bgeg|!
a2ea a2ea|agbg agef|gedc BGBd|gedB BAA2:|!

